coreui/free/cil-comment-square.svg

<svg xmlns="http://www.w3.org/2000/svg" viewBox="0 0 512 512">
  <path fill="var(--ci-primary-color, currentColor)" d="M496,496H448.771L379.249,368H40a24.028,24.028,0,0,1-24-24V40A24.028,24.028,0,0,1,40,16H472a24.028,24.028,0,0,1,24,24ZM48,336H398.284L464,456.993V48H48Z" class="ci-primary"/>
</svg>

<svg viewBox="0 0 512 512" xmlns="http://www.w3.org/2000/svg"><path d="M496 496h-47.23l-69.53-128H39.99v0c-13.25-.02-23.99-10.76-24-24V40v0c.01-13.25 10.75-23.99 24-24h432 -.001c13.24.01 23.98 10.75 24 24ZM48 336h350.284l65.71 120.99v-409h-416Z"/></svg>
